src/svgs/forklift-truck.svg

<svg xmlns="http://www.w3.org/2000/svg" viewBox="0 0 24 24" width="512" height="512" aria-labelledby="ewforklift-truck-desc ewforklift-truck-title"><title id="ewforklift-truck-title">Forklift Truck Icon</title><desc id="ewforklift-truck-desc">A picture depicting a forklift truck.</desc><path d="M22 12v-2h-6V2h-2v12h-2l-2-9H4v9H2v5a3 3 0 006 0h3a3 3 0 105-2.221V12zM5 20a1 1 0 111-1 1 1 0 01-1 1zm1-8V7h2l1 5zm8 8a1 1 0 111-1 1 1 0 01-1 1z"/></svg>

<svg xmlns="http://www.w3.org/2000/svg" viewBox="0 0 24 24"><path d="M22,12V10H16V2H14V14H12L10,5H4v9H2v5a3,3,0,0,0,6,0h3a3,3,0,1,0,5-2.221V12ZM5,20a1,1,0,1,1,1-1A1,1,0,0,1,5,20Zm1-8V7H8l1,5Zm8,8a1,1,0,1,1,1-1A1,1,0,0,1,14,20Z"/></svg>
